src/static/svg/ic-cart.svg

<svg width="25" height="24" viewBox="0 0 25 24" fill="none" xmlns="http://www.w3.org/2000/svg">
<rect width="24.7496" height="23.9999" fill="black" fill-opacity="0"/>
<rect width="24.7496" height="23.9999" fill="black" fill-opacity="0"/>
<path d="M6.41263 15.8009H19.7526C21.2656 15.8009 22.4996 14.5779 22.4996 13.0779V7.51485V7.49485V7.45485C22.4996 7.44485 22.4996 7.43485 22.4946 7.42485C22.4946 7.41485 22.4896 7.40085 22.4896 7.39085C22.4896 7.38085 22.4846 7.37085 22.4846 7.36085C22.4796 7.35085 22.4796 7.34085 22.4746 7.32685C22.4696 7.31685 22.4696 7.30685 22.4646 7.29685C22.4596 7.28685 22.4596 7.27685 22.4546 7.26785C22.4487 7.2566 22.4437 7.2449 22.4396 7.23285C22.4296 7.21486 22.4196 7.19685 22.4096 7.17885C22.4046 7.16885 22.3996 7.16385 22.3956 7.15485C22.3906 7.14485 22.3806 7.13485 22.3756 7.12485C22.3706 7.11535 22.3638 7.10688 22.3556 7.09985C22.3506 7.08985 22.3406 7.08485 22.3356 7.07585C22.3306 7.06585 22.3206 7.06085 22.3156 7.05085C22.3106 7.04085 22.3006 7.03585 22.2956 7.03085L22.2706 7.00685C22.2606 7.00185 22.2556 6.99185 22.2456 6.98685C22.2356 6.98185 22.2256 6.97185 22.2156 6.96685L22.1906 6.95185C22.1795 6.94698 22.1694 6.94022 22.1606 6.93185L22.1306 6.91785C22.111 6.90785 22.0913 6.89785 22.0716 6.88785C22.0616 6.88285 22.0516 6.88285 22.0416 6.87785C22.0307 6.87225 22.0188 6.86885 22.0066 6.86785C21.9966 6.86785 21.9866 6.86285 21.9816 6.86285C21.9676 6.85885 21.9576 6.85885 21.9416 6.85885C21.9376 6.85885 21.9316 6.85385 21.9216 6.85385L5.01463 4.53885V2.20185C5.01463 2.17785 5.01463 2.15285 5.00963 2.13285C5.00963 2.12785 5.00963 2.12285 5.00463 2.11285C5.00363 2.09885 4.99963 2.08385 4.99963 2.06885C4.99463 2.05385 4.99463 2.04385 4.98963 2.02885C4.98963 2.01885 4.98463 2.01485 4.98463 2.00485L4.96963 1.96085L4.96563 1.94085C4.96104 1.92658 4.95429 1.91309 4.94563 1.90085C4.94063 1.89585 4.94063 1.88685 4.93563 1.88085C4.93067 1.87011 4.92391 1.8603 4.91563 1.85185L4.89963 1.82685C4.89463 1.81685 4.88963 1.81285 4.88463 1.80285C4.87963 1.79285 4.86963 1.78285 4.86463 1.77285L4.84963 1.75885L4.81963 1.72885L4.80463 1.71485C4.79463 1.70485 4.78463 1.69485 4.76963 1.68485C4.76463 1.67985 4.75563 1.67485 4.74963 1.67085C4.73963 1.66085 4.72963 1.65585 4.71963 1.64585C4.70673 1.63684 4.69338 1.6285 4.67963 1.62085C4.67563 1.61585 4.66963 1.61585 4.66563 1.61085L4.60063 1.58085L0.933626 0.0528531C0.769797 -0.0162114 0.585295 -0.0176428 0.420414 0.0488716C0.255534 0.115386 0.123672 0.244441 0.0536257 0.407853C-0.0913743 0.747853 0.0676257 1.13785 0.410626 1.28085L3.66563 2.64185V17.2329C3.66563 18.6129 4.71063 19.7579 6.05863 19.9309C5.80606 20.3469 5.6719 20.8241 5.67063 21.3109C5.67063 22.7959 6.89063 23.9999 8.38263 23.9999C9.87563 23.9999 11.0946 22.7919 11.0946 21.3119C11.0964 20.834 10.9674 20.3647 10.7216 19.9549H16.7616C16.5236 20.3549 16.3886 20.8189 16.3886 21.3119C16.3886 22.7959 17.6086 23.9999 19.1006 23.9999C20.5936 23.9999 21.8126 22.7919 21.8126 21.3119C21.8126 19.8319 20.5936 18.6239 19.1006 18.6239H6.41263C6.0421 18.6252 5.68619 18.4795 5.42297 18.2187C5.15976 17.9579 5.01074 17.6034 5.00863 17.2329V15.4269C5.41663 15.6639 5.89963 15.8019 6.41263 15.8019V15.8009ZM9.74963 21.7489C9.74963 22.5789 9.07363 23.2489 8.24963 23.2489C7.42563 23.2489 6.74963 22.5729 6.74963 21.7489C6.74963 20.9249 7.42563 20.2489 8.24963 20.2489C9.07363 20.2489 9.74963 20.9189 9.74963 21.7489ZM20.9996 21.7489C20.9996 22.5789 20.3236 23.2489 19.4996 23.2489C18.6756 23.2489 17.9996 22.5729 17.9996 21.7489C17.9996 20.9249 18.6756 20.2489 19.4996 20.2489C20.3236 20.2489 20.9996 20.9189 20.9996 21.7489ZM20.3156 14.2489H6.68363C5.89063 14.2489 5.24963 13.6469 5.24963 12.9129V5.99885L21.7496 8.11685V12.9079C21.7496 13.6519 21.1036 14.2489 20.3156 14.2489Z" fill="#D6D8D9"/>
</svg>

<svg xmlns="http://www.w3.org/2000/svg" width="25" height="24" viewBox="0 0 25 24">
    <g fill="none" fill-rule="evenodd">
        <path fill="#00EDC3" d="M23.316 17.25H9.684c-.793 0-1.434-.602-1.434-1.336V9l16.5 2.118v4.791c0 .744-.646 1.341-1.434 1.341z"/>
        <path fill="#FFF" fill-rule="nonzero" d="M6.413 15.802h13.34c1.513 0 2.747-1.223 2.747-2.723V7.516v-.02-.04c0-.01 0-.02-.005-.03 0-.01-.005-.024-.005-.034 0-.01-.005-.02-.005-.03-.005-.01-.005-.02-.01-.034-.005-.01-.005-.02-.01-.03-.005-.01-.005-.02-.01-.029a.24.24 0 0 1-.015-.035 81320.6 81320.6 0 0 1-.03-.054c-.005-.01-.01-.015-.014-.024-.005-.01-.015-.02-.02-.03a.087.087 0 0 0-.02-.025c-.005-.01-.015-.015-.02-.024-.005-.01-.015-.015-.02-.025-.005-.01-.015-.015-.02-.02l-.025-.024c-.01-.005-.015-.015-.025-.02-.01-.005-.02-.015-.03-.02l-.025-.015a.104.104 0 0 1-.03-.02l-.03-.014a8334.544 8334.544 0 0 0-.059-.03c-.01-.005-.02-.005-.03-.01a.093.093 0 0 0-.035-.01c-.01 0-.02-.005-.025-.005-.014-.004-.024-.004-.04-.004-.004 0-.01-.005-.02-.005L5.015 4.54V2.203c0-.024 0-.049-.005-.069 0-.005 0-.01-.005-.02C5.004 2.1 5 2.085 5 2.07c-.005-.015-.005-.025-.01-.04 0-.01-.005-.014-.005-.024l-.015-.044-.004-.02a.147.147 0 0 0-.02-.04c-.005-.005-.005-.014-.01-.02a.103.103 0 0 0-.02-.029L4.9 1.828c-.005-.01-.01-.014-.015-.024-.005-.01-.015-.02-.02-.03L4.85 1.76l-.03-.03-.015-.014c-.01-.01-.02-.02-.035-.03-.005-.005-.014-.01-.02-.014-.01-.01-.02-.015-.03-.025a.46.46 0 0 0-.04-.025c-.004-.005-.01-.005-.014-.01l-.065-.03L.934.054a.673.673 0 0 0-.88.355c-.145.34.014.73.357.873l3.255 1.361v14.591c0 1.38 1.045 2.525 2.393 2.698a2.673 2.673 0 0 0-.388 1.38c0 1.485 1.22 2.689 2.712 2.689 1.493 0 2.712-1.208 2.712-2.688a2.62 2.62 0 0 0-.373-1.357h6.04c-.238.4-.373.864-.373 1.357 0 1.484 1.22 2.688 2.712 2.688 1.493 0 2.712-1.208 2.712-2.688 0-1.48-1.219-2.688-2.712-2.688H6.413a1.399 1.399 0 0 1-1.404-1.391v-1.806c.408.237.891.375 1.404.375zM9.75 21.75c0 .83-.676 1.5-1.5 1.5s-1.5-.676-1.5-1.5.676-1.5 1.5-1.5 1.5.67 1.5 1.5zm11.25 0c0 .83-.676 1.5-1.5 1.5s-1.5-.676-1.5-1.5.676-1.5 1.5-1.5 1.5.67 1.5 1.5zm-.684-7.5H6.684c-.793 0-1.434-.602-1.434-1.336V6l16.5 2.118v4.791c0 .744-.646 1.341-1.434 1.341z"/>
    </g>
</svg>
